src/icons/time-signature.svg

<?xml version="1.0" encoding="UTF-8" standalone="no"?>
<!DOCTYPE svg PUBLIC "-//W3C//DTD SVG 1.1//EN" "http://www.w3.org/Graphics/SVG/1.1/DTD/svg11.dtd">
<svg width="24px" height="25px" version="1.1" xmlns="http://www.w3.org/2000/svg" xmlns:xlink="http://www.w3.org/1999/xlink" xml:space="preserve" xmlns:serif="http://www.serif.com/" style="fill-rule:evenodd;clip-rule:evenodd;stroke-linejoin:round;stroke-miterlimit:2;">
    <g transform="matrix(1,0,0,1,-1720,-48)">
        <g transform="matrix(1,0,0,1,0,30.298)">
            <g id="time-signature" transform="matrix(0.500001,0,0,0.500002,1243.78,-107.912)">
                <g id="timesig-bg" transform="matrix(0.827698,0,0,1.29375,160.327,36.9364)">
                    <ellipse cx="986" cy="184.647" rx="28.996" ry="18.551"/>
                </g>
                <g id="timesig-symbol" transform="matrix(1,0,0,1,-14.6395,-66.6339)">
                    <path d="M992.085,330.217c1.504,0 2.936,0.312 4.296,0.936c1.36,0.624 2.472,1.472 3.336,2.544c0.864,1.072 1.296,2.28 1.296,3.624c0,1.184 -0.4,2.2 -1.2,3.048c-0.8,0.848 -1.808,1.272 -3.024,1.272c-1.088,0 -1.984,-0.312 -2.688,-0.936c-0.704,-0.624 -1.056,-1.48 -1.056,-2.568c0,-0.832 0.24,-1.536 0.72,-2.112c0.48,-0.576 1.056,-1.024 1.728,-1.344c0.352,-0.16 0.784,-0.296 1.296,-0.408c0.512,-0.112 0.768,-0.264 0.768,-0.456c0,-0.512 -0.448,-0.992 -1.344,-1.44c-0.896,-0.448 -1.856,-0.672 -2.88,-0.672c-1.312,0 -2.432,0.304 -3.36,0.912c-0.928,0.608 -1.624,1.648 -2.088,3.12c-0.464,1.472 -0.696,3.52 -0.696,6.144l0,3.744c0,1.184 0.184,2.344 0.552,3.48c0.368,1.136 0.984,2.072 1.848,2.808c0.864,0.736 2,1.104 3.408,1.104c1.6,0 3.056,-0.72 4.368,-2.16c1.312,-1.44 2.16,-3.376 2.544,-5.808l1.296,0c-0.128,1.856 -0.608,3.512 -1.44,4.968c-0.832,1.456 -1.952,2.6 -3.36,3.432c-1.408,0.832 -3.024,1.248 -4.848,1.248c-2.016,0 -3.824,-0.584 -5.424,-1.752c-1.6,-1.168 -2.864,-2.728 -3.792,-4.68c-0.928,-1.952 -1.392,-4.128 -1.392,-6.528c0,-1.536 0.296,-2.992 0.888,-4.368c0.592,-1.376 1.4,-2.6 2.424,-3.672c1.024,-1.072 2.208,-1.92 3.552,-2.544c1.344,-0.624 2.768,-0.936 4.272,-0.936Z" style="fill:white;fill-rule:nonzero;"/>
                </g>
            </g>
        </g>
    </g>
</svg>

<?xml version="1.0" encoding="UTF-8" standalone="no"?><!DOCTYPE svg PUBLIC "-//W3C//DTD SVG 1.1//EN" "http://www.w3.org/Graphics/SVG/1.1/DTD/svg11.dtd"><svg width="48px" height="49px" version="1.1" xmlns="http://www.w3.org/2000/svg" xmlns:xlink="http://www.w3.org/1999/xlink" xml:space="preserve" xmlns:serif="http://www.serif.com/" style="fill-rule:evenodd;clip-rule:evenodd;stroke-linejoin:round;stroke-miterlimit:2;"><g transform="matrix(1,0,0,1,-1720,-176)"><g transform="matrix(1,0,0,1,2.27374e-13,20.6936)"><g id="time-signature" transform="matrix(1,0,0,1,767.56,-96.2203)"><g id="timesig-bg" transform="matrix(0.827698,0,0,1.29375,160.327,36.9364)"><ellipse cx="986" cy="184.647" rx="28.996" ry="18.551"/></g><g id="timesig-symbol" transform="matrix(1,0,0,1,-14.6395,-66.6339)"><path d="M992.085,330.217C993.589,330.217 995.021,330.529 996.381,331.153C997.741,331.777 998.853,332.625 999.717,333.697C1000.58,334.769 1001.01,335.977 1001.01,337.321C1001.01,338.505 1000.61,339.521 999.813,340.369C999.013,341.217 998.005,341.641 996.789,341.641C995.701,341.641 994.805,341.329 994.101,340.705C993.397,340.081 993.045,339.225 993.045,338.137C993.045,337.305 993.285,336.601 993.765,336.025C994.245,335.449 994.821,335.001 995.493,334.681C995.845,334.521 996.277,334.385 996.789,334.273C997.301,334.161 997.557,334.009 997.557,333.817C997.557,333.305 997.109,332.825 996.213,332.377C995.317,331.929 994.357,331.705 993.333,331.705C992.021,331.705 990.901,332.009 989.973,332.617C989.045,333.225 988.349,334.265 987.885,335.737C987.421,337.209 987.189,339.257 987.189,341.881L987.189,345.625C987.189,346.809 987.373,347.969 987.741,349.105C988.109,350.241 988.725,351.177 989.589,351.913C990.453,352.649 991.589,353.017 992.997,353.017C994.597,353.017 996.053,352.297 997.365,350.857C998.677,349.417 999.525,347.481 999.909,345.049L1001.21,345.049C1001.08,346.905 1000.6,348.561 999.765,350.017C998.933,351.473 997.813,352.617 996.405,353.449C994.997,354.281 993.381,354.697 991.557,354.697C989.541,354.697 987.733,354.113 986.133,352.945C984.533,351.777 983.269,350.217 982.341,348.265C981.413,346.313 980.949,344.137 980.949,341.737C980.949,340.201 981.245,338.745 981.837,337.369C982.429,335.993 983.237,334.769 984.261,333.697C985.285,332.625 986.469,331.777 987.813,331.153C989.157,330.529 990.581,330.217 992.085,330.217Z" style="fill:white;fill-rule:nonzero;"/></g></g></g></g></svg>
